src/icons/folder-node_modules.svg

<?xml version="1.0" encoding="UTF-8" standalone="no"?>
<svg
   version="1.2"
   viewBox="0 0 16 16"
   width="16"
   height="16"
   id="svg2"
   sodipodi:docname="node_modules.svg"
   inkscape:version="1.4 (e7c3feb100, 2024-10-09)"
   xmlns:inkscape="http://www.inkscape.org/namespaces/inkscape"
   xmlns:sodipodi="http://sodipodi.sourceforge.net/DTD/sodipodi-0.dtd"
   xmlns="http://www.w3.org/2000/svg"
   xmlns:svg="http://www.w3.org/2000/svg">
  <defs
     id="defs2" />
  <sodipodi:namedview
     id="namedview2"
     pagecolor="#505050"
     bordercolor="#eeeeee"
     borderopacity="1"
     inkscape:showpageshadow="0"
     inkscape:pageopacity="0"
     inkscape:pagecheckerboard="0"
     inkscape:deskcolor="#505050"
     inkscape:zoom="37.75"
     inkscape:cx="7.986755"
     inkscape:cy="8"
     inkscape:window-width="1316"
     inkscape:window-height="755"
     inkscape:window-x="20"
     inkscape:window-y="20"
     inkscape:window-maximized="0"
     inkscape:current-layer="svg2" />
  <title
     id="title1">folder</title>
  <style
     id="style1">
		.s0 { fill: #8080a0 } 
		.s1 { fill: #8cc162 } 
	</style>
  <path
     id="path1"
     class="s0"
     d="M 4.1992188 1 C 3.0992187 1 2.4996094 0.99921875 2.0996094 1.1992188 C 1.6996094 1.3992188 1.3992188 1.6996094 1.1992188 2.0996094 C 0.99921875 2.4996094 1 3.0992187 1 4.1992188 L 1 9 C 1 10.4 1.0007812 11.099609 1.3007812 11.599609 C 1.5007812 12.099609 1.9003906 12.499219 2.4003906 12.699219 C 2.9003906 12.999219 3.6 13 5 13 L 5.7675781 13 C 5.6931613 12.875869 5.6354626 12.743022 5.5996094 12.599609 C 5.4996094 12.299609 5.5 11.900781 5.5 11.300781 L 5.5 8.8007812 C 5.5 8.2007813 5.4996094 7.8996094 5.5996094 7.5996094 C 5.666276 7.3329427 5.8 7.1003906 6 6.9003906 C 6.2 6.7003906 6.5 6.6007813 7 6.3007812 L 9.3007812 4.9003906 C 9.8007812 4.6003906 10.100391 4.5003906 10.400391 4.4003906 C 10.600391 4.333724 10.865885 4.333724 11.199219 4.4003906 C 11.399219 4.5003906 11.699219 4.6003906 12.199219 4.9003906 L 13.990234 5.9121094 C 13.971016 5.2003634 13.908255 4.7487837 13.699219 4.4003906 C 13.499219 3.9003906 13.099609 3.5007813 12.599609 3.3007812 C 12.099609 3.0007813 11.4 3 10 3 L 8.3007812 3 L 8.0996094 3 C 8.0329427 3 7.9670573 2.9670573 7.9003906 2.9003906 L 7.8007812 2.8007812 L 7.1992188 2.1992188 C 6.6992188 1.6992188 6.5007813 1.5003906 6.3007812 1.4003906 C 6.0341146 1.2670573 5.7666667 1.166276 5.5 1.0996094 C 5.3 0.99960938 5.0007813 1 4.3007812 1 L 4.1992188 1 z " />
  <g
     id="Layer 1">
    <path
       id="path2"
       fill-rule="evenodd"
       class="s1"
       d="m13.4 7.3c0.4 0.2 0.6 0.3 0.7 0.5q0.2 0.2 0.3 0.5c0.1 0.2 0.1 0.4 0.1 0.9v1.8c0 0.4 0 0.6-0.2 0.8q0 0.3-0.2 0.5c-0.1 0.2-0.3 0.3-0.7 0.5l-1.7 0.9c-0.3 0.3-0.5 0.4-0.7 0.4q-0.3 0.1-0.6 0c-0.2 0-0.4-0.1-0.7-0.4l-1.6-0.9c-0.4-0.2-0.6-0.3-0.7-0.4q-0.2-0.2-0.3-0.5c-0.1-0.2-0.1-0.5-0.1-0.9v-1.8c0-0.5 0-0.7 0.1-0.9q0.1-0.2 0.3-0.5c0.1-0.1 0.3-0.2 0.7-0.4l1.6-1c0.4-0.2 0.5-0.3 0.8-0.4q0.2 0 0.5 0c0.2 0.1 0.4 0.2 0.8 0.4z" />
  </g>
</svg>

<svg xmlns="http://www.w3.org/2000/svg" width="16" height="16" version="1.2"><path d="M4.2 1c-1.1 0-1.7 0-2.1.2q-.6.3-.9.9c-.2.4-.2 1-.2 2.1V9c0 1.4 0 2.1.3 2.6.2.5.6.9 1.1 1.1.5.3 1.2.3 2.6.3h.768a1.5 1.5 0 0 1-.168-.4c-.1-.3-.1-.7-.1-1.3V8.8c0-.6 0-.9.1-1.2q.1-.4.4-.7c.2-.2.5-.3 1-.6l2.3-1.4c.5-.3.8-.4 1.1-.5q.3-.099.8 0c.2.1.5.2 1 .5l1.79 1.012c-.019-.712-.082-1.163-.29-1.512-.2-.5-.6-.9-1.1-1.1C12.1 3 11.4 3 10 3H8.1q-.1 0-.2-.1l-.1-.1-.6-.6c-.5-.5-.7-.7-.9-.8a4 4 0 0 0-.8-.3C5.3 1 5 1 4.3 1z" style="fill:#8080a0"/><path fill-rule="evenodd" d="M13.4 7.3c.4.2.6.3.7.5q.2.2.3.5c.1.2.1.4.1.9V11c0 .4 0 .6-.2.8q0 .3-.2.5c-.1.2-.3.3-.7.5l-1.7.9c-.3.3-.5.4-.7.4q-.3.1-.6 0c-.2 0-.4-.1-.7-.4l-1.6-.9c-.4-.2-.6-.3-.7-.4q-.2-.2-.3-.5c-.1-.2-.1-.5-.1-.9V9.2c0-.5 0-.7.1-.9q.1-.2.3-.5c.1-.1.3-.2.7-.4l1.6-1c.4-.2.5-.3.8-.4h.5l.8.4z" style="fill:#8cc162"/></svg>
